X: 4
T: Scotty O'Neil
I: Scotty O'Neil	R-32	D	reel
C: Bob McQuillen 1973
M: C|
R: reel
K: D
AG| "D"F2D2 A2F2| "G"dedc BABc| "D"d2A2 G2F2| "A"F2 E4 AG|
    "D"F2D2 A2F2| "G"dedc BABc| "D"d2A2 "A"ABAG| "D"F2 D4 :|
|:AG| "D"F2A2 f2e2| "G"d2c2 B3c| "D"d2A2 G2F2| "A"F2 E4 AG|
    "D"F2D2 f3e| "G"dedc BABc| "D"d2A2 "A"ABAG| "D"F2 D4 :|
%%text Roaring Jelly  R-32
%%scale .5
%%text 1/25/02 

#include "RightHeader.h"
%%footer 08/29/98 For use only by Roaring Jelly members
% ---------- set 23 ----------
% Far From Home (G) / Willafjord (D) / Scotty O'Neil (D)
%%text Set 23
